!!!OTL: 1375. Abschied von Deutschland.
!!!ODT: 1809
!!!ARE: Europa, Mitteleuropa, Deutschland
!!!SCT: E1375
!!!TXL: @@DE
!!!YEM: Copyright 1995, estate of Helmut Schaffrath.
**kern	**text
*ICvox	*
*M3/4	*
*k[f#]	*
*G:	*
!LO:TX:a:t=Mäßig.	!
!LO:TX:a:t=Volksmelodie 1809.	!
{8g	O
8a	du
=1	=1
4b	Deutſch-
8b	-land,
8b	ich
8cc	muß
8a	mar-
=2	=2
8eeL	-ſchie-
8ddJ	.
4dd}	-ren,
{8b	o
8dd	du
=3	=3
8ddL	Deutſch-
8ccJ	.
4cc	-land,
8dd	ich
8cc	muß
=4	=4
2b}	fort!
{8g	O
8a	du
=5	=5
4b	Deutſch-
8b	-land,
8b	ich
8cc	muß
8a	mar-
=6	=6
8eeL	-ſchie-
8ddJ	.
4dd}	-ren,
{8b	o
8dd	du
=7	=7
8ddL	Deutſch-
8ccJ	.
4cc	-land,
8dd	ich
8cc	muß
=8	=8
2b}	fort!
{8dd	Ei-
8b	-ne
=9	=9
8bL	ʒeit-
8aJ	.
4a	-lang
8ee	muß
8cc	ich
=10	=10
8ccL	ſchei-
8bJ	.
4b}	-den,
{8dd	ei-
8b	-ne
=11	=11
8bL	ʒeit-
8aJ	.
4a	-lang
8ee	muß
8cc	ich
=12	=12
8ccL	mei-
8bJ	.
4b}	-den
{8g	mein
8a	ge-
=13	=13
4b	-lieb-
4b	-tes
8cc	Va-
8a	-ter-
=14	=14
(4ee	-land,
4dd)}	.
{8b	mein
8dd	ge-
=15	=15
8ddL	-lieb-
8ccJ	.
4cc	-tes
8dd	Va-
8cc	-ter-
=16	=16
2b}	-land.
==	==
!!!AGN: Staende -, Soldaten -, Kriegs - Lied
!!!ONB: ESAC (Essen Associative Code) Database: ERK3
!!!AMT: simple triple
!!!AIN: vox
!!!EED: Helmut Schaffrath
!!!EEV: 1.0
!!!GTL: Staendelieder (Berufslieder). 1. Soldaten- und Kriegslieder. Soldatenlieder seit dem 30jaehr. Kriege.
!!!URL-scan: https://rosdok.uni-rostock.de/mcrviewer/recordIdentifier/rosdok_ppn745177999/iview2/phys_0248.iview2?x=-128.77276441889285&y=1184.480089012417&scale=0.5870222003877487&rotation=0&layout=singlePageLayout
!!!ENC: Anna Maria Matuszewska
!!!EEV: 2024/12/30
*-	*-
